X: 1
T: Violon Guerisseur
R: reel
M: 4/4
L: 1/8
K: Dmaj
F2Ac B2AF|GBAF DDD2|F2Ac B2AF|GBAF B,4|F2Ac B2AF|GBAF DDD2|
d2Ac B2AF|GBAF EEE2|d2cA B2AF|GBAF DDD2|
d2Ac B2AF|GBAF EEE2|[M:6/4] dDcD B2AF GBAF|
[M:4/4] AFAd DAFA|[M:6/4] EFGA BGEG FDD2|[M:4/4] ABAG FDED|
AAFA DAFA|[M:6/4] EFGA BGEG FDD2|ABAG FDED B,4:|

